assets/svg/yt_dlp.svg

<svg xmlns="http://www.w3.org/2000/svg" width="51.026" height="50" fill="none" viewBox="0 0 51.026 50"><path fill="#fff" fill-rule="evenodd" d="m.52 20.98 5.91 3.25-5.91 3.35 1.3 1.88 7.08-4.24v-1.98L1.79 19zm16 12.02v-2.18H7.44V33z"/><path stroke="#282828" stroke-linejoin="round" d="M6.43 24.23.52 27.58l1.3 1.88 7.08-4.24v-1.98L1.79 19 .52 20.98zm10.09 6.59H7.44V33h9.08z"/><path fill="red" fill-rule="evenodd" d="M21.22 30.39a2 2 0 0 1-.89-.61c-.24-.28-.42-.6-.54-.95-.12-.36-.2-.72-.24-1.09-.04-.38-.04-.76-.01-1.14.03-.39.09-.78.16-1.17l.48-2.9c.09-.53.24-1.04.44-1.54.21-.51.51-.97.89-1.36.39-.41.85-.71 1.37-.92.51-.21 1.03-.31 1.58-.31.32 0 .62.04.93.12.29.08.54.22.77.41.22.2.4.43.54.7.13.26.23.53.29.82L28.08 14h3.19l-2.75 16.42h-3.21l.25-1.52c-.17.27-.38.51-.62.72-.24.22-.5.4-.78.55-.29.15-.58.26-.89.32-.31.07-.61.1-.93.1-.38.01-.76-.06-1.12-.2m3.57-2.49c.23-.07.42-.18.6-.33.17-.16.31-.34.4-.55.1-.2.17-.41.2-.63l.5-2.9c.03-.18.05-.36.07-.55.01-.18.02-.36.01-.55-.01-.17-.04-.35-.08-.52-.04-.16-.11-.32-.21-.46a.83.83 0 0 0-.38-.31 1.2 1.2 0 0 0-.53-.11c-.26 0-.52.04-.76.14-.25.1-.47.24-.66.44-.19.18-.33.4-.43.64s-.17.49-.2.74l-.5 2.91c-.04.25-.06.5-.06.76.01.24.06.48.16.7s.26.39.48.5c.23.12.46.18.72.18.23 0 .45-.03.67-.1m5.5-.08h2.74l1.89-11.23h-2.05V14h5.69l-2.34 13.82h2.05v2.6h-7.98zm11.24-9.25h3.21l-.25 1.5c.18-.26.39-.49.62-.71.24-.22.49-.41.78-.56.28-.15.57-.25.89-.31.3-.06.61-.09.92-.09.39-.01.76.06 1.13.2.35.13.64.33.89.61.23.28.41.59.53.94q.18.525.24 1.08c.04.39.04.77.01 1.15-.03.4-.07.79-.14 1.18l-.5 2.9c-.09.52-.24 1.03-.44 1.52-.21.51-.5.97-.88 1.37-.38.42-.84.73-1.37.93-.51.21-1.04.31-1.59.31-.31 0-.61-.04-.91-.12-.29-.07-.55-.21-.78-.41-.21-.2-.39-.43-.52-.69-.14-.27-.24-.54-.32-.83L41.96 35h-3.19zm3.9 9.29c.26-.1.48-.25.66-.44.19-.19.34-.41.44-.66q.135-.345.21-.72l.48-2.91c.05-.25.07-.5.06-.76-.01-.24-.06-.48-.16-.7s-.26-.39-.48-.5a1.5 1.5 0 0 0-.72-.18c-.23 0-.45.03-.67.1s-.42.18-.59.33c-.17.16-.31.34-.4.55q-.135.3-.21.63l-.47 2.9c-.03.18-.06.36-.08.55-.03.18-.03.35-.02.53.02.18.05.35.08.52.04.17.11.32.2.47.09.14.22.25.39.32.16.08.34.11.52.11.26 0 .52-.05.76-.14"/><path stroke="#282828" stroke-linejoin="round" d="M20.33 29.78c-.24-.28-.42-.6-.54-.95-.12-.36-.2-.72-.24-1.09-.04-.38-.04-.76-.01-1.14.03-.39.09-.78.16-1.17l.48-2.9c.09-.53.24-1.04.44-1.54.21-.51.51-.97.89-1.36.39-.41.85-.71 1.37-.92.51-.21 1.03-.31 1.58-.31.32 0 .62.04.93.12.29.08.54.22.77.41.22.2.4.43.54.7.13.26.23.53.29.82L28.08 14h3.19l-2.75 16.42h-3.21l.25-1.52c-.17.27-.38.51-.62.72-.24.22-.5.4-.78.55-.29.15-.58.26-.89.32-.31.07-.61.1-.93.1-.38.01-.76-.06-1.12-.2a2 2 0 0 1-.89-.61Zm5.06-2.21c.17-.16.31-.34.4-.55.1-.2.17-.41.2-.63l.5-2.9c.03-.18.05-.36.07-.55.01-.18.02-.36.01-.55-.01-.17-.04-.35-.08-.52-.04-.16-.11-.32-.21-.46a.83.83 0 0 0-.38-.31 1.2 1.2 0 0 0-.53-.11c-.26 0-.52.04-.76.14-.25.1-.47.24-.66.44-.19.18-.33.4-.43.64s-.17.49-.2.74l-.5 2.91c-.04.25-.06.5-.06.76.01.24.06.48.16.7s.26.39.48.5c.23.12.46.18.72.18.23 0 .45-.03.67-.1.23-.07.42-.18.6-.33Zm7.64.25 1.89-11.23h-2.05V14h5.69l-2.34 13.82h2.05v2.6h-7.98v-2.6zm11.71-9.25-.25 1.5c.18-.26.39-.49.62-.71.24-.22.49-.41.78-.56.28-.15.57-.25.89-.31.3-.06.61-.09.92-.09.39-.01.76.06 1.13.2.35.13.64.33.89.61.23.28.41.59.53.94q.18.525.24 1.08c.04.39.04.77.01 1.15-.03.4-.07.79-.14 1.18l-.5 2.9c-.09.52-.24 1.03-.44 1.52-.21.51-.5.97-.88 1.37-.38.42-.84.73-1.37.93-.51.21-1.04.31-1.59.31-.31 0-.61-.04-.91-.12-.29-.07-.55-.21-.78-.41-.21-.2-.39-.43-.52-.69-.14-.27-.24-.54-.32-.83L41.96 35h-3.19l2.76-16.43zm1.35 8.85c.19-.19.34-.41.44-.66q.135-.345.21-.72l.48-2.91c.05-.25.07-.5.06-.76-.01-.24-.06-.48-.16-.7s-.26-.39-.48-.5a1.5 1.5 0 0 0-.72-.18c-.23 0-.45.03-.67.1s-.42.18-.59.33c-.17.16-.31.34-.4.55q-.135.3-.21.63l-.47 2.9c-.03.18-.06.36-.08.55-.03.18-.03.35-.02.53.02.18.05.35.08.52.04.17.11.32.2.47.09.14.22.25.39.32.16.08.34.11.52.11.26 0 .52-.05.76-.14.26-.1.48-.25.66-.44Z"/></svg>

<svg width="51.026306" height="50.000000" viewBox="0 0 51.0263 50" fill="none" xmlns="http://www.w3.org/2000/svg" xmlns:xlink="http://www.w3.org/1999/xlink">
	<desc>
			Created with Pixso.
	</desc>
	<defs/>
	<g opacity="0.000000">
		<rect id="Прямоугольник 63" x="0.526306" width="50.000000" height="50.000000" fill="#C4C4C4" fill-opacity="1.000000"/>
	</g>
	<path id="path" d="M0.52 20.98L6.43 24.23L0.52 27.58L1.82 29.46L8.9 25.22L8.9 23.24L1.79 19L0.52 20.98ZM16.52 33L16.52 30.82L7.44 30.82L7.44 33L16.52 33Z" fill="#FFFFFF" fill-opacity="1.000000" fill-rule="evenodd"/>
	<path id="path" d="M6.43 24.23L0.52 27.58L1.82 29.46L8.9 25.22L8.9 23.24L1.79 19L0.52 20.98L6.43 24.23ZM16.52 30.82L7.44 30.82L7.44 33L16.52 33L16.52 30.82Z" stroke="#282828" stroke-opacity="1.000000" stroke-width="1.000000" stroke-linejoin="round"/>
	<path id="path" d="M21.22 30.39C20.86 30.27 20.57 30.06 20.33 29.78C20.09 29.5 19.91 29.18 19.79 28.83C19.67 28.47 19.59 28.11 19.55 27.74C19.51 27.36 19.51 26.98 19.54 26.6C19.57 26.21 19.63 25.82 19.7 25.43L20.18 22.53C20.27 22 20.42 21.49 20.62 20.99C20.83 20.48 21.13 20.02 21.51 19.63C21.9 19.22 22.36 18.92 22.88 18.71C23.39 18.5 23.91 18.4 24.46 18.4C24.78 18.4 25.08 18.44 25.39 18.52C25.68 18.6 25.93 18.74 26.16 18.93C26.38 19.13 26.56 19.36 26.7 19.63C26.83 19.89 26.93 20.16 26.99 20.45L28.08 14L31.27 14L28.52 30.42L25.31 30.42L25.56 28.9C25.39 29.17 25.18 29.41 24.94 29.62C24.7 29.84 24.44 30.02 24.16 30.17C23.87 30.32 23.58 30.43 23.27 30.49C22.96 30.56 22.66 30.59 22.34 30.59C21.96 30.6 21.58 30.53 21.22 30.39ZM24.79 27.9C25.02 27.83 25.21 27.72 25.39 27.57C25.56 27.41 25.7 27.23 25.79 27.02C25.89 26.82 25.96 26.61 25.99 26.39L26.49 23.49C26.52 23.31 26.54 23.13 26.56 22.94C26.57 22.76 26.58 22.58 26.57 22.39C26.56 22.22 26.53 22.04 26.49 21.87C26.45 21.71 26.38 21.55 26.28 21.41C26.19 21.27 26.06 21.17 25.9 21.1C25.73 21.02 25.56 20.99 25.37 20.99C25.11 20.99 24.85 21.03 24.61 21.13C24.36 21.23 24.14 21.37 23.95 21.57C23.76 21.75 23.62 21.97 23.52 22.21C23.42 22.45 23.35 22.7 23.32 22.95L22.82 25.86C22.78 26.11 22.76 26.36 22.76 26.62C22.77 26.86 22.82 27.1 22.92 27.32C23.02 27.54 23.18 27.71 23.4 27.82C23.63 27.94 23.86 28 24.12 28C24.35 28 24.57 27.97 24.79 27.9ZM30.29 27.82L33.03 27.82L34.92 16.59L32.87 16.59L32.87 14L38.56 14L36.22 27.82L38.27 27.82L38.27 30.42L30.29 30.42L30.29 27.82ZM41.53 18.57L44.74 18.57L44.49 20.07C44.67 19.81 44.88 19.58 45.11 19.36C45.35 19.14 45.6 18.95 45.89 18.8C46.17 18.65 46.46 18.55 46.78 18.49C47.08 18.43 47.39 18.4 47.7 18.4C48.09 18.39 48.46 18.46 48.83 18.6C49.18 18.73 49.47 18.93 49.72 19.21C49.95 19.49 50.13 19.8 50.25 20.15C50.37 20.5 50.45 20.86 50.49 21.23C50.53 21.62 50.53 22 50.5 22.38C50.47 22.78 50.43 23.17 50.36 23.56L49.86 26.46C49.77 26.98 49.62 27.49 49.42 27.98C49.21 28.49 48.92 28.95 48.54 29.35C48.16 29.77 47.7 30.08 47.17 30.28C46.66 30.49 46.13 30.59 45.58 30.59C45.27 30.59 44.97 30.55 44.67 30.47C44.38 30.4 44.12 30.26 43.89 30.06C43.68 29.86 43.5 29.63 43.37 29.37C43.23 29.1 43.13 28.83 43.05 28.54L41.96 35L38.77 35L41.53 18.57ZM45.43 27.86C45.69 27.76 45.91 27.61 46.09 27.42C46.28 27.23 46.43 27.01 46.53 26.76C46.62 26.53 46.69 26.29 46.74 26.04L47.22 23.13C47.27 22.88 47.29 22.63 47.28 22.37C47.27 22.13 47.22 21.89 47.12 21.67C47.02 21.45 46.86 21.28 46.64 21.17C46.42 21.05 46.18 20.99 45.92 20.99C45.69 20.99 45.47 21.02 45.25 21.09C45.03 21.16 44.83 21.27 44.66 21.42C44.49 21.58 44.35 21.76 44.26 21.97C44.17 22.17 44.1 22.38 44.05 22.6L43.58 25.5C43.55 25.68 43.52 25.86 43.5 26.05C43.47 26.23 43.47 26.4 43.48 26.58C43.5 26.76 43.53 26.93 43.56 27.1C43.6 27.27 43.67 27.42 43.76 27.57C43.85 27.71 43.98 27.82 44.15 27.89C44.31 27.97 44.49 28 44.67 28C44.93 28 45.19 27.95 45.43 27.86Z" fill="#FF0000" fill-opacity="1.000000" fill-rule="evenodd"/>
	<path id="path" d="M20.33 29.78C20.09 29.5 19.91 29.18 19.79 28.83C19.67 28.47 19.59 28.11 19.55 27.74C19.51 27.36 19.51 26.98 19.54 26.6C19.57 26.21 19.63 25.82 19.7 25.43L20.18 22.53C20.27 22 20.42 21.49 20.62 20.99C20.83 20.48 21.13 20.02 21.51 19.63C21.9 19.22 22.36 18.92 22.88 18.71C23.39 18.5 23.91 18.4 24.46 18.4C24.78 18.4 25.08 18.44 25.39 18.52C25.68 18.6 25.93 18.74 26.16 18.93C26.38 19.13 26.56 19.36 26.7 19.63C26.83 19.89 26.93 20.16 26.99 20.45L28.08 14L31.27 14L28.52 30.42L25.31 30.42L25.56 28.9C25.39 29.17 25.18 29.41 24.94 29.62C24.7 29.84 24.44 30.02 24.16 30.17C23.87 30.32 23.58 30.43 23.27 30.49C22.96 30.56 22.66 30.59 22.34 30.59C21.96 30.6 21.58 30.53 21.22 30.39C20.86 30.27 20.57 30.06 20.33 29.78ZM25.39 27.57C25.56 27.41 25.7 27.23 25.79 27.02C25.89 26.82 25.96 26.61 25.99 26.39L26.49 23.49C26.52 23.31 26.54 23.13 26.56 22.94C26.57 22.76 26.58 22.58 26.57 22.39C26.56 22.22 26.53 22.04 26.49 21.87C26.45 21.71 26.38 21.55 26.28 21.41C26.19 21.27 26.06 21.17 25.9 21.1C25.73 21.02 25.56 20.99 25.37 20.99C25.11 20.99 24.85 21.03 24.61 21.13C24.36 21.23 24.14 21.37 23.95 21.57C23.76 21.75 23.62 21.97 23.52 22.21C23.42 22.45 23.35 22.7 23.32 22.95L22.82 25.86C22.78 26.11 22.76 26.36 22.76 26.62C22.77 26.86 22.82 27.1 22.92 27.32C23.02 27.54 23.18 27.71 23.4 27.82C23.63 27.94 23.86 28 24.12 28C24.35 28 24.57 27.97 24.79 27.9C25.02 27.83 25.21 27.72 25.39 27.57ZM33.03 27.82L34.92 16.59L32.87 16.59L32.87 14L38.56 14L36.22 27.82L38.27 27.82L38.27 30.42L30.29 30.42L30.29 27.82L33.03 27.82ZM44.74 18.57L44.49 20.07C44.67 19.81 44.88 19.58 45.11 19.36C45.35 19.14 45.6 18.95 45.89 18.8C46.17 18.65 46.46 18.55 46.78 18.49C47.08 18.43 47.39 18.4 47.7 18.4C48.09 18.39 48.46 18.46 48.83 18.6C49.18 18.73 49.47 18.93 49.72 19.21C49.95 19.49 50.13 19.8 50.25 20.15C50.37 20.5 50.45 20.86 50.49 21.23C50.53 21.62 50.53 22 50.5 22.38C50.47 22.78 50.43 23.17 50.36 23.56L49.86 26.46C49.77 26.98 49.62 27.49 49.42 27.98C49.21 28.49 48.92 28.95 48.54 29.35C48.16 29.77 47.7 30.08 47.17 30.28C46.66 30.49 46.13 30.59 45.58 30.59C45.27 30.59 44.97 30.55 44.67 30.47C44.38 30.4 44.12 30.26 43.89 30.06C43.68 29.86 43.5 29.63 43.37 29.37C43.23 29.1 43.13 28.83 43.05 28.54L41.96 35L38.77 35L41.53 18.57L44.74 18.57ZM46.09 27.42C46.28 27.23 46.43 27.01 46.53 26.76C46.62 26.53 46.69 26.29 46.74 26.04L47.22 23.13C47.27 22.88 47.29 22.63 47.28 22.37C47.27 22.13 47.22 21.89 47.12 21.67C47.02 21.45 46.86 21.28 46.64 21.17C46.42 21.05 46.18 20.99 45.92 20.99C45.69 20.99 45.47 21.02 45.25 21.09C45.03 21.16 44.83 21.27 44.66 21.42C44.49 21.58 44.35 21.76 44.26 21.97C44.17 22.17 44.1 22.38 44.05 22.6L43.58 25.5C43.55 25.68 43.52 25.86 43.5 26.05C43.47 26.23 43.47 26.4 43.48 26.58C43.5 26.76 43.53 26.93 43.56 27.1C43.6 27.27 43.67 27.42 43.76 27.57C43.85 27.71 43.98 27.82 44.15 27.89C44.31 27.97 44.49 28 44.67 28C44.93 28 45.19 27.95 45.43 27.86C45.69 27.76 45.91 27.61 46.09 27.42Z" stroke="#282828" stroke-opacity="1.000000" stroke-width="1.000000" stroke-linejoin="round"/>
</svg>
